src/assets/outline/Figma1.svg

<?xml version="1.0" encoding="UTF-8"?>
<svg width="24" height="24" viewBox="0 0 24 24" xmlns="http://www.w3.org/2000/svg">
 <path d="m12.75 10.75h-2.75c-1.52 0-2.75-1.23-2.75-2.75s1.23-2.75 2.75-2.75h2.75v5.5zm-2.75-4c-0.69 0-1.25 0.56-1.25 1.25s0.56 1.25 1.25 1.25h1.25v-2.5h-1.25z"/>
 <path d="m12.75 14.75h-2.75c-1.52 0-2.75-1.23-2.75-2.75s1.23-2.75 2.75-2.75h2.75v5.5zm-2.75-4c-0.69 0-1.25 0.56-1.25 1.25s0.56 1.25 1.25 1.25h1.25v-2.5h-1.25z"/>
 <path d="m10 18.75c-1.52 0-2.75-1.23-2.75-2.75s1.23-2.75 2.75-2.75h2.75v2.75c0 1.52-1.23 2.75-2.75 2.75zm0-4c-0.69 0-1.25 0.56-1.25 1.25s0.56 1.25 1.25 1.25 1.25-0.56 1.25-1.25v-1.25h-1.25z"/>
 <path d="m14 10.75h-2.75v-5.5h2.75c1.52 0 2.75 1.23 2.75 2.75s-1.23 2.75-2.75 2.75zm-1.25-1.5h1.25c0.69 0 1.25-0.56 1.25-1.25s-0.56-1.25-1.25-1.25h-1.25v2.5z"/>
 <path d="m14 14.75c-1.52 0-2.75-1.23-2.75-2.75s1.23-2.75 2.75-2.75 2.75 1.23 2.75 2.75-1.23 2.75-2.75 2.75zm0-4c-0.69 0-1.25 0.56-1.25 1.25s0.56 1.25 1.25 1.25 1.25-0.56 1.25-1.25-0.56-1.25-1.25-1.25z"/>
 <path d="m12 22.75c-5.93 0-10.75-4.82-10.75-10.75s4.82-10.75 10.75-10.75 10.75 4.82 10.75 10.75-4.82 10.75-10.75 10.75zm0-20c-5.1 0-9.25 4.15-9.25 9.25s4.15 9.25 9.25 9.25 9.25-4.15 9.25-9.25-4.15-9.25-9.25-9.25z"/>
</svg>

<svg width="24" height="24" viewBox="0 0 24 24"  xmlns="http://www.w3.org/2000/svg">
<path d="M12.75 10.75H10C8.48 10.75 7.25 9.52 7.25 8C7.25 6.48 8.48 5.25 10 5.25H12.75V10.75ZM10 6.75C9.31 6.75 8.75 7.31 8.75 8C8.75 8.69 9.31 9.25 10 9.25H11.25V6.75H10Z" />
<path d="M12.75 14.75H10C8.48 14.75 7.25 13.52 7.25 12C7.25 10.48 8.48 9.25 10 9.25H12.75V14.75ZM10 10.75C9.31 10.75 8.75 11.31 8.75 12C8.75 12.69 9.31 13.25 10 13.25H11.25V10.75H10Z" />
<path d="M10 18.75C8.48 18.75 7.25 17.52 7.25 16C7.25 14.48 8.48 13.25 10 13.25H12.75V16C12.75 17.52 11.52 18.75 10 18.75ZM10 14.75C9.31 14.75 8.75 15.31 8.75 16C8.75 16.69 9.31 17.25 10 17.25C10.69 17.25 11.25 16.69 11.25 16V14.75H10Z" />
<path d="M14 10.75H11.25V5.25H14C15.52 5.25 16.75 6.48 16.75 8C16.75 9.52 15.52 10.75 14 10.75ZM12.75 9.25H14C14.69 9.25 15.25 8.69 15.25 8C15.25 7.31 14.69 6.75 14 6.75H12.75V9.25Z" />
<path d="M14 14.75C12.48 14.75 11.25 13.52 11.25 12C11.25 10.48 12.48 9.25 14 9.25C15.52 9.25 16.75 10.48 16.75 12C16.75 13.52 15.52 14.75 14 14.75ZM14 10.75C13.31 10.75 12.75 11.31 12.75 12C12.75 12.69 13.31 13.25 14 13.25C14.69 13.25 15.25 12.69 15.25 12C15.25 11.31 14.69 10.75 14 10.75Z" />
<path d="M12 22.75C6.07 22.75 1.25 17.93 1.25 12C1.25 6.07 6.07 1.25 12 1.25C17.93 1.25 22.75 6.07 22.75 12C22.75 17.93 17.93 22.75 12 22.75ZM12 2.75C6.9 2.75 2.75 6.9 2.75 12C2.75 17.1 6.9 21.25 12 21.25C17.1 21.25 21.25 17.1 21.25 12C21.25 6.9 17.1 2.75 12 2.75Z" />
</svg>
